X:1
T:In The Middle Of A Kiss
T:In The Middle Of A Kiss
C:Sam Coslow
Z:All Rights Reserved
L:1/8
M:2/2
K:C
V:1 treble nm="Piano" snm="Pno."
%%MIDI program 0
V:1
 z2 ^DE"E7" FE (3DEc- |"Am" c8- |"F7" c4"E7" cB (3A^GB- |"Am" B3 E A4- | A2 B,C"C7" DC (3B,CA- | %5
w: In the mid- dle of a kiss|_|* Sud- den- ly it dawned|_ on me|_ In the mid- dle of a kiss|
"F" A8- |"A7" A2 GG- GE G2 |"Dm" F8- | F2 EF cA (3cAE- |"G7" E2 E2 E4- | E2 D2 ^CDEF | %11
w: _|* I knew _ you were|mine.|_ In the mid- dle of a sweet|_ em- brace,|_ That you at first re-|
"C" A4"G+9" A4- |"C" A2 G2 ^FGAB |"Am" c2 cc-"Cm" c3 B |"D7" d2 d2 d3 B |"Dm7" A4"G7" G4- | %16
w: sen- ted|_ Re- mem- ber how sur-|prised we were _ To|find we real- ly|meant it?|
 G2 ^DE"E7" FE (3DEc- |"Am" c8- |"F7" c3 c"E7" cB (3A^GB- |"Am" B3 E A4- | A2 B,C"C7" DC (3B,CA- | %21
w: _ In the mid- dle of a sigh|_|* we stum- bled in- to Par-|* a- dise.|_ In the twink- le of an eye|
"F" A8- |"A7" A2 GG- GE G2 |"Dm" F8- | F4"Fm" ^G2"A7" A2 |"Dm" ed (3cA_A-"Fm" A4- | A4 e2 _e2 | %27
w: _|* we lost _ it a-|gain.|_ For we|did- n't com- pre- hend _|_ that our|
"C" dc"Gm" (3GFE-"A7" E4- | E4 G2"F#dim" B2 |"G9" A2 ^C>D"F" A4- |"G7" A2 GA Bcde |"C""F""Fm" c8- | %32
w: dream of love would end. _|_ Just the|way it be- gan,|_ In the mid- dle of a|kiss.|
"C" c4- c2 z2 |] %33
w: _ _|

